dist/assets/img/promo/main/kettle.svg

<svg width="75" height="94" viewBox="0 0 75 94" fill="none" xmlns="http://www.w3.org/2000/svg">
<path d="M39.0923 90.9388V90.8479V79.2076L38.4192 79.3531C38.2919 79.2439 38.1646 79.153 38.0009 79.0621C36.564 78.2254 34.2176 78.2254 32.7807 79.0621C32.5806 79.1894 32.3987 79.3167 32.2532 79.444L31.7075 79.1894V90.8297C31.7075 91.3935 32.0531 91.9392 32.7989 92.3757C34.2358 93.2123 36.5822 93.2123 38.0191 92.3757C38.6921 91.9755 39.0559 91.4663 39.0923 90.957V90.9388Z" fill="#7D7D7B" stroke="#26144D" stroke-width="1.5" stroke-linecap="round" stroke-linejoin="round"/>
<path d="M38.0191 80.7537C36.5822 81.5903 34.254 81.5721 32.7989 80.7537C31.362 79.917 31.3438 78.5711 32.7989 77.7345C34.2358 76.8978 36.564 76.916 38.0191 77.7345C39.456 78.5711 39.4742 79.917 38.0191 80.7537Z" fill="white" stroke="#26144D" stroke-width="1.5" stroke-linecap="round" stroke-linejoin="round"/>
<path d="M61.9732 83.391V83.3V71.6597L61.3002 71.8052C61.1729 71.6961 61.0456 71.6051 60.8819 71.5142C59.4449 70.6776 57.0986 70.6776 55.6616 71.5142C55.4616 71.6415 55.2797 71.7688 55.1341 71.8961L54.5885 71.6415V83.2818C54.5885 83.8457 54.9341 84.3913 55.6798 84.8278C57.1168 85.6644 59.4631 85.6644 60.9001 84.8278C61.5731 84.4277 61.9368 83.9184 61.9732 83.4091V83.391Z" fill="#7D7D7B" stroke="#26144D" stroke-width="1.5" stroke-linecap="round" stroke-linejoin="round"/>
<path d="M60.8998 73.1873C59.4629 74.0239 57.1347 74.0057 55.6796 73.1873C54.2427 72.3506 54.2245 71.0047 55.6796 70.168C57.1165 69.3314 59.4447 69.3496 60.8998 70.168C62.3368 71.0047 62.355 72.3506 60.8998 73.1873Z" fill="white" stroke="#26144D" stroke-width="1.5" stroke-linecap="round" stroke-linejoin="round"/>
<path d="M16.9016 83.391V83.3V71.6597L16.2286 71.8052C16.1012 71.6961 15.9739 71.6051 15.8102 71.5142C14.3733 70.6776 12.0269 70.6776 10.59 71.5142C10.3899 71.6415 10.208 71.7688 10.0625 71.8961L9.51685 71.6415V83.2818C9.51685 83.8457 9.86245 84.3913 10.6082 84.8278C12.0451 85.6644 14.3915 85.6644 15.8284 84.8278C16.5014 84.4277 16.8652 83.9184 16.9016 83.4091V83.391Z" fill="#7D7D7B" stroke="#26144D" stroke-width="1.5" stroke-linecap="round" stroke-linejoin="round"/>
<path d="M15.8283 73.1873C14.3914 74.0239 12.0632 74.0057 10.6081 73.1873C9.17116 72.3506 9.15297 71.0047 10.6081 70.168C12.045 69.3314 14.3732 69.3496 15.8283 70.168C17.2652 71.0047 17.2834 72.3506 15.8283 73.1873Z" fill="white" stroke="#26144D" stroke-width="1.5" stroke-linecap="round" stroke-linejoin="round"/>
<path d="M64.0307 3.32666L68.6143 6.0003L61.2478 6.49138L64.0307 3.32666Z" fill="white" stroke="#26144D" stroke-width="1.5" stroke-linecap="round" stroke-linejoin="round"/>
<path d="M67.0312 23.3152C66.8675 30.0811 64.8849 35.9558 61.1198 40.7393C58.3187 44.3041 55.4266 46.1229 55.1538 46.3048V48.16C52.9529 50.0879 51.3341 51.07 51.0431 51.2337V43.904C51.3159 43.7403 54.1898 41.9215 56.9909 38.3384C60.756 33.555 62.7386 27.6803 62.9023 20.9143C62.9933 17.3495 62.5022 14.694 61.429 12.9844C62.2475 13.0208 63.066 13.2208 63.7936 13.621C66.049 14.9123 67.1403 18.168 67.013 23.3152H67.0312Z" fill="white" stroke="#26144D" stroke-width="1.5" stroke-linecap="round" stroke-linejoin="round"/>
<path d="M69.2868 17.4227C68.9958 29.4268 64.0848 38.0115 59.9923 43.0859C58.2825 45.2139 56.5909 46.8872 55.154 48.1422V46.287C55.4268 46.1052 58.3189 44.2863 61.12 40.7215C64.8851 35.9199 66.8677 30.0633 67.0314 23.2974C67.1587 18.1502 66.0674 14.8946 63.812 13.6032C63.0844 13.1849 62.2659 13.003 61.4474 12.9666C60.9745 12.1846 60.3924 11.6025 59.683 11.2024C58.2825 10.4021 56.6092 10.4385 55.1177 10.7659C52.935 11.2206 51.1342 12.2937 51.0979 12.3119L50.916 5.09123C51.2434 4.89117 58.8282 0.344173 64.2121 3.41794C64.9397 3.83627 65.5763 4.34553 66.1402 4.98211C68.3774 7.45568 69.4323 11.6207 69.305 17.4227H69.2868Z" fill="white" stroke="#26144D" stroke-width="1.5" stroke-linecap="round" stroke-linejoin="round"/>
<path d="M73.4166 19.8234C73.1256 31.8274 68.2146 40.4121 64.122 45.4684C59.7931 50.8339 55.6278 53.3438 55.1731 53.5984V48.1239V46.2687C55.4459 46.0868 58.338 44.268 61.1391 40.7032C64.9042 35.9015 66.8868 30.045 67.0505 23.2791C67.1778 18.1319 66.0864 14.8762 63.831 13.5849C63.1035 13.1665 62.285 12.9847 61.4665 12.9483C58.4653 12.8028 55.2822 14.6944 55.2277 14.7125L55.1367 10.7657L55.0458 7.4737C55.3186 7.31001 61.1027 3.85431 66.141 4.96378C66.905 5.12747 67.6325 5.40028 68.3419 5.80041C71.8887 7.81928 73.5985 12.53 73.4166 19.8052V19.8234Z" fill="#7D7D7B" stroke="#26144D" stroke-width="1.5" stroke-linecap="round" stroke-linejoin="round"/>
<path d="M50.916 5.10938L55.0449 7.49202L55.2086 14.7308L51.0979 12.33L50.916 5.10938Z" fill="white" stroke="#26144D" stroke-width="1.5" stroke-linecap="round" stroke-linejoin="round"/>
<path d="M55.1538 46.3052L55.172 53.6168L51.0431 51.216V43.8862L55.1538 46.3052Z" fill="white" stroke="#26144D" stroke-width="1.5" stroke-linecap="round" stroke-linejoin="round"/>
<path d="M62.9026 71.6777C62.9572 75.7155 60.3198 79.735 54.9904 82.827C44.3863 88.9381 27.1613 88.92 16.4844 82.7724C10.955 79.5713 8.28122 75.3517 8.4813 71.2049C7.88107 67.1853 3.97048 38.5938 13.1741 12.7305H58.1189C68.0683 40.6308 62.8844 71.6959 62.8844 71.6959L62.9026 71.6777Z" fill="white" stroke="#26144D" stroke-width="1.5" stroke-linecap="round" stroke-linejoin="round"/>
<path d="M51.8256 24.1164C42.9676 29.2272 28.5619 29.209 19.6493 24.0618C10.7368 18.9146 10.6822 10.6027 19.5402 5.49189C28.3982 0.381066 42.8038 0.399251 51.7164 5.54645C60.629 10.6937 60.6836 19.0056 51.8256 24.1164Z" fill="white" stroke="#26144D" stroke-width="1.5" stroke-linecap="round" stroke-linejoin="round"/>
<path d="M51.9167 5.43718C60.8111 10.5844 60.7747 18.9327 51.8075 24.098C42.8404 29.2634 28.3802 29.2998 19.4676 24.1526C10.5732 19.0054 10.6096 10.6571 19.5767 5.49174C28.5257 0.326357 43.0041 0.289983 51.9167 5.43718Z" fill="#248CFF" stroke="#26144D" stroke-width="1.5" stroke-linecap="round" stroke-linejoin="round"/>
<path d="M25.6879 32.3008C25.6879 32.3008 19.9402 72.8418 14.7018 69.6407C8.82674 66.0395 1.44202 40.6491 1.44202 40.6491" fill="#E9E9E9"/>
<path d="M25.6879 32.3008C25.6879 32.3008 19.9402 72.8418 14.7018 69.6407C8.82674 66.0395 1.44202 40.6491 1.44202 40.6491" stroke="#26144D" stroke-width="1.5" stroke-linecap="round" stroke-linejoin="round"/>
<path d="M25.6881 32.3011C25.6881 32.3011 4.27972 42.3409 1.42405 40.6312C-1.43161 38.9215 12.9922 25.4624 12.9922 25.4624L25.6881 32.2829V32.3011Z" fill="#7D7D7B" stroke="#26144D" stroke-width="1.5" stroke-linecap="round" stroke-linejoin="round"/>
<path d="M46.0033 8.83858C51.6601 12.0942 51.6237 17.4051 45.9305 20.6972C40.2374 23.9892 31.052 24.0074 25.3952 20.7335C19.7385 17.4779 19.7748 12.167 25.468 8.87496C31.1611 5.58294 40.3465 5.56474 46.0033 8.83858Z" stroke="white" stroke-width="1.5" stroke-linecap="round" stroke-linejoin="round"/>
</svg>

<svg width="75" height="94" fill="none" xmlns="http://www.w3.org/2000/svg"><path d="M39.092 90.939V79.208l-.673.145c-.127-.11-.254-.2-.418-.29-1.437-.838-3.783-.838-5.22 0a4.41 4.41 0 00-.528.381l-.546-.255v11.64c0 .565.346 1.11 1.092 1.547 1.437.836 3.783.836 5.22 0 .673-.4 1.037-.91 1.073-1.419v-.018z" fill="#7D7D7B" stroke="#26144D" stroke-width="1.5" stroke-linecap="round" stroke-linejoin="round"/><path d="M38.02 80.754c-1.438.836-3.766.818-5.221 0-1.437-.837-1.455-2.183 0-3.02 1.437-.836 3.765-.818 5.22 0 1.437.837 1.455 2.183 0 3.02z" fill="#fff" stroke="#26144D" stroke-width="1.5" stroke-linecap="round" stroke-linejoin="round"/><path d="M61.973 83.391V71.66l-.673.145a2.356 2.356 0 00-.418-.29c-1.437-.837-3.783-.837-5.22 0-.2.126-.382.254-.528.381l-.545-.255v11.64c0 .565.345 1.11 1.09 1.547 1.438.836 3.784.836 5.221 0 .673-.4 1.037-.91 1.073-1.419v-.018z" fill="#7D7D7B" stroke="#26144D" stroke-width="1.5" stroke-linecap="round" stroke-linejoin="round"/><path d="M60.9 73.187c-1.437.837-3.765.819-5.22 0-1.437-.836-1.456-2.182 0-3.019 1.437-.837 3.765-.818 5.22 0 1.437.837 1.455 2.183 0 3.02z" fill="#fff" stroke="#26144D" stroke-width="1.5" stroke-linecap="round" stroke-linejoin="round"/><path d="M16.902 83.391V71.66l-.673.145a2.402 2.402 0 00-.419-.29c-1.437-.837-3.783-.837-5.22 0a4.41 4.41 0 00-.527.381l-.546-.255v11.64c0 .565.345 1.11 1.091 1.547 1.437.836 3.784.836 5.22 0 .673-.4 1.037-.91 1.074-1.419v-.018z" fill="#7D7D7B" stroke="#26144D" stroke-width="1.5" stroke-linecap="round" stroke-linejoin="round"/><path d="M15.828 73.187c-1.437.837-3.765.819-5.22 0-1.437-.836-1.455-2.182 0-3.019 1.437-.837 3.765-.818 5.22 0 1.437.837 1.455 2.183 0 3.02zM64.03 3.327L68.615 6l-7.366.491 2.783-3.164zm3.001 19.988c-.163 6.766-2.146 12.64-5.911 17.424-2.801 3.565-5.693 5.384-5.966 5.566v1.855c-2.201 1.928-3.82 2.91-4.11 3.074v-7.33c.272-.164 3.146-1.983 5.947-5.566 3.765-4.783 5.748-10.658 5.911-17.424.091-3.565-.4-6.22-1.473-7.93.819.037 1.637.237 2.365.637 2.255 1.291 3.346 4.547 3.219 9.694h.018z" fill="#fff" stroke="#26144D" stroke-width="1.5" stroke-linecap="round" stroke-linejoin="round"/><path d="M69.287 17.423c-.291 12.004-5.202 20.588-9.295 25.663a39.94 39.94 0 01-4.838 5.056v-1.855c.273-.182 3.165-2 5.966-5.566 3.765-4.801 5.748-10.658 5.911-17.424.128-5.147-.964-8.402-3.219-9.694-.728-.418-1.546-.6-2.365-.636-.473-.782-1.055-1.365-1.764-1.765-1.4-.8-3.074-.764-4.565-.436-2.183.455-3.984 1.528-4.02 1.546l-.182-7.22c.327-.2 7.912-4.748 13.296-1.674a7.588 7.588 0 011.928 1.564c2.237 2.474 3.292 6.639 3.165 12.44h-.018z" fill="#fff" stroke="#26144D" stroke-width="1.5" stroke-linecap="round" stroke-linejoin="round"/><path d="M73.417 19.823c-.291 12.004-5.202 20.59-9.295 25.645-4.329 5.366-8.494 7.876-8.949 8.13V46.27c.273-.182 3.165-2.001 5.966-5.566 3.765-4.802 5.748-10.658 5.911-17.424.128-5.147-.964-8.403-3.219-9.694-.728-.419-1.546-.6-2.364-.637-3.002-.145-6.185 1.746-6.24 1.764l-.09-3.946-.091-3.292c.273-.164 6.057-3.62 11.095-2.51a7.73 7.73 0 012.2.836c3.548 2.02 5.258 6.73 5.076 14.005v.018z" fill="#7D7D7B" stroke="#26144D" stroke-width="1.5" stroke-linecap="round" stroke-linejoin="round"/><path d="M50.916 5.11l4.129 2.382.164 7.239-4.111-2.401-.182-7.22zm4.238 41.195l.018 7.312-4.129-2.401v-7.33l4.11 2.42z" fill="#fff" stroke="#26144D" stroke-width="1.5" stroke-linecap="round" stroke-linejoin="round"/><path d="M62.903 71.678c.054 4.038-2.583 8.057-7.913 11.149-10.604 6.111-27.829 6.093-38.506-.055-5.529-3.2-8.203-7.42-8.003-11.567-.6-4.02-4.51-32.611 4.693-58.474H58.12c9.95 27.9 4.765 58.965 4.765 58.965l.019-.018z" fill="#fff" stroke="#26144D" stroke-width="1.5" stroke-linecap="round" stroke-linejoin="round"/><path d="M51.826 24.116c-8.858 5.111-23.264 5.093-32.177-.054-8.912-5.147-8.967-13.46-.109-18.57 8.858-5.11 23.264-5.093 32.176.054 8.913 5.148 8.968 13.46.11 18.57z" fill="#fff" stroke="#26144D" stroke-width="1.5" stroke-linecap="round" stroke-linejoin="round"/><path d="M51.917 5.437c8.894 5.147 8.858 13.496-.11 18.661-8.967 5.165-23.427 5.202-32.34.055-8.894-5.148-8.857-13.496.11-18.661C28.526.326 43.004.29 51.917 5.437z" fill="#248CFF" stroke="#26144D" stroke-width="1.5" stroke-linecap="round" stroke-linejoin="round"/><path d="M25.688 32.3S19.94 72.843 14.702 69.64c-5.875-3.6-13.26-28.99-13.26-28.99" fill="#E9E9E9"/><path d="M25.688 32.3S19.94 72.843 14.702 69.64c-5.875-3.6-13.26-28.99-13.26-28.99" stroke="#26144D" stroke-width="1.5" stroke-linecap="round" stroke-linejoin="round"/><path d="M25.688 32.301S4.28 42.341 1.424 40.631c-2.856-1.71 11.568-15.169 11.568-15.169l12.696 6.82v.02z" fill="#7D7D7B" stroke="#26144D" stroke-width="1.5" stroke-linecap="round" stroke-linejoin="round"/><path d="M46.003 8.839c5.657 3.255 5.62 8.566-.072 11.858-5.694 3.292-14.879 3.31-20.536.037-5.657-3.256-5.62-8.567.073-11.859 5.693-3.292 14.878-3.31 20.535-.036z" stroke="#fff" stroke-width="1.5" stroke-linecap="round" stroke-linejoin="round"/></svg>
